X: 27551
T: Monaghan, The
R: jig
M: 6/8
K: Edorian
|:BGE ~E3|BGE FGA|BGE ~E3|AFD FGA|
BGE ~E3|BGE FGA|dcB A2G|FDF AFD:|
|:EGB ~e2g|fed edc|DFA dAG|FDF AFD|
EGB e2g|fed edc|dcB A2G|FDF AFD:|
|:~g3 e2f|geg bge|~g3 ~e3|fed dfa|
~g3 e2f|geg bge|dcB A2G|FDF AFD:|
|:EGB eBG|BGE ~F3|e3 BGE|~F3 AFD|
EGB GBd|Bdg egb|fed ABG|FDF AFD:|

